svg/icons/src/icon-abacus.svg

<?xml version="1.0" encoding="UTF-8"?>
<svg width="32px" height="32px" viewBox="0 0 32 32" version="1.1" xmlns="http://www.w3.org/2000/svg" xmlns:xlink="http://www.w3.org/1999/xlink">
    <!-- Generator: Sketch 52.5 (67469) - http://www.bohemiancoding.com/sketch -->
    <title>icon-abacus</title>
    <desc>Created with Sketch.</desc>
    <g id="icon-abacus" stroke="none" stroke-width="1" fill="none" fill-rule="evenodd">
        <g transform="translate(1.000000, 0.000000)" fill="#2333FF">
            <path d="M29.7297297,2.66666667 C29.7297297,1.19390733 28.5358224,9.01805001e-17 27.0630631,0 L3.06306306,0 C1.59030373,-9.01805001e-17 0.396396396,1.19390733 0.396396396,2.66666667 L0.396396396,29.3333333 C0.396396396,30.8060927 1.59030373,32 3.06306306,32 L27.0630631,32 C28.5358224,32 29.7297297,30.8060927 29.7297297,29.3333333 L29.7297297,2.66666667 Z M27.0630631,28.6666667 C27.0630631,29.0348565 26.7645862,29.3333333 26.3963964,29.3333333 L21.3963964,29.3333333 C21.2123015,29.3333333 21.0630631,29.1840949 21.0630631,29 L21.0630631,27 C21.0630631,26.8159051 20.9138246,26.6666667 20.7297297,26.6666667 L18.7297297,26.6666667 C18.5456348,26.6666667 18.3963964,26.8159051 18.3963964,27 L18.3963964,29 C18.3963964,29.1840949 18.247158,29.3333333 18.0630631,29.3333333 L12.0630631,29.3333333 C11.8789681,29.3333333 11.7297297,29.1840949 11.7297297,29 L11.7297297,25.6666667 C11.7297297,25.4825718 11.5804913,25.3333333 11.3963964,25.3333333 L9.3963964,25.3333333 C9.21230148,25.3333333 9.06306306,25.4825718 9.06306306,25.6666667 L9.06306306,29 C9.06306306,29.1840949 8.91382465,29.3333333 8.72972973,29.3333333 L3.72972973,29.3333333 C3.3615399,29.3333333 3.06306306,29.0348565 3.06306306,28.6666667 L3.06306306,3.33333333 C3.06306306,2.9651435 3.3615399,2.66666667 3.72972973,2.66666667 L8.72972973,2.66666667 C8.91382465,2.66666667 9.06306306,2.81590508 9.06306306,3 L9.06306306,4.33333333 C9.06306306,4.51742825 9.21230148,4.66666667 9.3963964,4.66666667 L11.3963964,4.66666667 C11.5804913,4.66666667 11.7297297,4.51742825 11.7297297,4.33333333 L11.7297297,3 C11.7297297,2.81590508 11.8789681,2.66666667 12.0630631,2.66666667 L18.0630631,2.66666667 C18.247158,2.66666667 18.3963964,2.81590508 18.3963964,3 L18.3963964,11 C18.3963964,11.1840949 18.5456348,11.3333333 18.7297297,11.3333333 L20.7297297,11.3333333 C20.9138246,11.3333333 21.0630631,11.1840949 21.0630631,11 L21.0630631,3 C21.0630631,2.81590508 21.2123015,2.66666667 21.3963964,2.66666667 L26.3963964,2.66666667 C26.7645862,2.66666667 27.0630631,2.9651435 27.0630631,3.33333333 L27.0630631,28.6666667 Z" id="Shape" fill-rule="nonzero"></path>
            <path d="M6.73873874,8.4 C6.73873874,9.5045695 7.59060776,10.4 8.64144144,10.4 L11.1783784,10.4 C12.2292121,10.4 13.0810811,9.5045695 13.0810811,8.4 C13.0810811,7.2954305 12.2292121,6.4 11.1783784,6.4 L8.64144144,6.4 C7.59060776,6.4 6.73873874,7.2954305 6.73873874,8.4 Z" id="Path"></path>
            <path d="M16.2522523,14.8 C16.2522523,15.9045695 17.1041213,16.8 18.154955,16.8 L20.6918919,16.8 C21.7427256,16.8 22.5945946,15.9045695 22.5945946,14.8 C22.5945946,13.6954305 21.7427256,12.8 20.6918919,12.8 L18.154955,12.8 C17.6503268,12.8 17.1663669,13.0107137 16.809541,13.3857864 C16.452715,13.7608592 16.2522523,14.269567 16.2522523,14.8 Z" id="Path"></path>
            <path d="M16.2522523,23.6 C16.2522523,24.7045695 17.1041213,25.6 18.154955,25.6 L20.6918919,25.6 C21.7427256,25.6 22.5945946,24.7045695 22.5945946,23.6 C22.5945946,22.4954305 21.7427256,21.6 20.6918919,21.6 L18.154955,21.6 C17.1041213,21.6 16.2522523,22.4954305 16.2522523,23.6 Z" id="Path"></path>
            <path d="M6.73873874,22 C6.73873874,23.1045695 7.59060776,24 8.64144144,24 L11.1783784,24 C12.2292121,24 13.0810811,23.1045695 13.0810811,22 C13.0810811,20.8954305 12.2292121,20 11.1783784,20 L8.64144144,20 C7.59060776,20 6.73873874,20.8954305 6.73873874,22 Z" id="Path"></path>
            <rect id="Rectangle" x="9.11711712" y="11.2" width="2.37837838" height="7.2" rx="0.25"></rect>
            <rect id="Rectangle" x="17.8378378" y="17.6" width="2.37837838" height="2.4" rx="0.25"></rect>
        </g>
    </g>
</svg>

<svg width="32" height="32" xmlns="http://www.w3.org/2000/svg"><g transform="translate(1)" fill="#2333FF" fill-rule="evenodd"><path d="M29.73 2.667A2.667 2.667 0 0 0 27.063 0h-24A2.667 2.667 0 0 0 .396 2.667v26.666A2.667 2.667 0 0 0 3.063 32h24a2.667 2.667 0 0 0 2.667-2.667V2.667zm-2.667 26a.667.667 0 0 1-.667.666h-5a.333.333 0 0 1-.333-.333v-2a.333.333 0 0 0-.333-.333h-2a.333.333 0 0 0-.334.333v2c0 .184-.149.333-.333.333h-6A.333.333 0 0 1 11.73 29v-3.333a.333.333 0 0 0-.334-.334h-2a.333.333 0 0 0-.333.334V29c0 .184-.15.333-.333.333h-5a.667.667 0 0 1-.667-.666V3.333c0-.368.299-.666.667-.666h5c.184 0 .333.149.333.333v1.333c0 .184.15.334.333.334h2c.184 0 .334-.15.334-.334V3c0-.184.149-.333.333-.333h6c.184 0 .333.149.333.333v8c0 .184.15.333.334.333h2c.184 0 .333-.149.333-.333V3c0-.184.15-.333.333-.333h5c.369 0 .667.298.667.666v25.334z" fill-rule="nonzero"/><path d="M6.739 8.4c0 1.105.852 2 1.902 2h2.537c1.051 0 1.903-.895 1.903-2s-.852-2-1.903-2H8.641c-1.05 0-1.902.895-1.902 2zm9.513 6.4c0 1.105.852 2 1.903 2h2.537c1.05 0 1.903-.895 1.903-2s-.852-2-1.903-2h-2.537c-.505 0-.989.21-1.345.586a2.053 2.053 0 0 0-.558 1.414zm0 8.8c0 1.105.852 2 1.903 2h2.537c1.05 0 1.903-.895 1.903-2s-.852-2-1.903-2h-2.537c-1.05 0-1.903.895-1.903 2zM6.74 22c0 1.105.852 2 1.902 2h2.537c1.051 0 1.903-.895 1.903-2s-.852-2-1.903-2H8.641c-1.05 0-1.902.895-1.902 2z"/><rect x="9.117" y="11.2" width="2.378" height="7.2" rx=".25"/><rect x="17.838" y="17.6" width="2.378" height="2.4" rx=".25"/></g></svg>
